static/passport-images/default-passport.svg

<svg xmlns="http://www.w3.org/2000/svg" width="346" height="472" fill="none"><path fill="#0B123B" d="M0 0h331c8.284 0 15 6.716 15 15v442c0 8.284-6.716 15-15 15H0z"/><path fill="#FDCB61" d="M68.809 109.309h12.91q3.829 0 6.172 2.168 2.343 2.148 2.343 6.054 0 3.36-2.09 5.86-2.09 2.48-6.425 2.48h-9.024V138H68.81zm17.5 8.242q0-3.165-2.344-4.297-1.29-.606-3.535-.606h-7.735v9.942h7.735q2.616 0 4.238-1.113 1.64-1.114 1.64-3.926m20.566 8.691-4.355-12.676-4.63 12.676zm-6.387-16.933h4.395L115.293 138h-4.258l-2.91-8.594H96.777L93.672 138h-3.984zm20.879 19.433q.136 2.441 1.153 3.965 1.933 2.852 6.816 2.852 2.187 0 3.984-.625 3.477-1.212 3.477-4.336 0-2.344-1.465-3.34-1.485-.977-4.648-1.699l-3.887-.879q-3.809-.86-5.391-1.895-2.734-1.797-2.734-5.371 0-3.867 2.676-6.348t7.578-2.48q4.512 0 7.656 2.187 3.164 2.168 3.164 6.954h-3.652q-.293-2.305-1.25-3.536-1.778-2.246-6.035-2.246-3.438 0-4.942 1.446t-1.504 3.359q0 2.11 1.758 3.086 1.153.625 5.215 1.562l4.023.918q2.91.665 4.493 1.817 2.734 2.012 2.734 5.84 0 4.766-3.477 6.816-3.456 2.05-8.047 2.051-5.35 0-8.378-2.735-3.028-2.714-2.969-7.363zm26.68 0q.136 2.441 1.152 3.965 1.933 2.852 6.817 2.852 2.187 0 3.984-.625 3.477-1.212 3.477-4.336 0-2.344-1.465-3.34-1.484-.977-4.649-1.699l-3.886-.879q-3.808-.86-5.391-1.895-2.734-1.797-2.734-5.371 0-3.867 2.675-6.348 2.676-2.48 7.578-2.48 4.512 0 7.657 2.187 3.164 2.168 3.164 6.954h-3.653q-.293-2.305-1.25-3.536-1.776-2.246-6.035-2.246-3.437 0-4.941 1.446t-1.504 3.359q0 2.11 1.758 3.086 1.152.625 5.215 1.562l4.023.918q2.91.665 4.492 1.817 2.735 2.012 2.735 5.84 0 4.766-3.477 6.816-3.457 2.05-8.047 2.051-5.351 0-8.379-2.735-3.028-2.714-2.968-7.363zm24.512-19.433h12.91q3.828 0 6.172 2.168 2.343 2.148 2.343 6.054 0 3.36-2.089 5.86-2.091 2.48-6.426 2.48h-9.024V138h-3.886zm17.5 8.242q0-3.165-2.344-4.297-1.29-.606-3.535-.606h-7.735v9.942h7.735q2.616 0 4.238-1.113 1.641-1.114 1.641-3.926m21.191-9.024q7.597 0 11.25 4.883 2.852 3.809 2.852 9.746 0 6.426-3.262 10.684-3.829 5-10.918 5-6.621 0-10.41-4.375-3.38-4.219-3.379-10.664 0-5.82 2.89-9.961 3.711-5.313 10.977-5.313m.391 26.836q5.136 0 7.421-3.672 2.305-3.691 2.305-8.476 0-5.059-2.656-8.145-2.637-3.086-7.227-3.086-4.452 0-7.265 3.067-2.813 3.046-2.813 9.004 0 4.765 2.403 8.047 2.421 3.261 7.832 3.261m31.699-12.91q2.735 0 4.316-1.094 1.602-1.093 1.602-3.945 0-3.066-2.227-4.18-1.191-.586-3.183-.586h-9.493v9.805zm-12.871-13.144h13.281q3.282 0 5.41.957 4.043 1.836 4.043 6.777 0 2.578-1.074 4.219-1.055 1.64-2.969 2.636 1.68.684 2.52 1.797.86 1.114.957 3.614l.136 3.847q.059 1.641.274 2.442.351 1.367 1.25 1.757V138h-4.766a3.6 3.6 0 0 1-.312-.957q-.117-.586-.196-2.266l-.234-4.785q-.137-2.812-2.09-3.769-1.113-.528-3.496-.528h-8.848V138h-3.886zm48.613 0v3.418h-9.668V138h-3.945v-25.273h-9.668v-3.418z"/><path fill="#FDCB61" fill-rule="evenodd" d="M247 295.5c0-41.145-33.355-74.5-74.5-74.5S98 254.355 98 295.5s33.355 74.5 74.5 74.5 74.5-33.355 74.5-74.5m-78.225 66.691v-36.787a67 67 0 0 0-27.055 7.378c1.613 4.226 3.484 8.103 5.561 11.564 6.326 10.544 13.959 16.396 21.494 17.845m7.45-36.787v36.787c7.535-1.449 15.168-7.301 21.494-17.845 2.077-3.461 3.948-7.338 5.561-11.564a67.058 67.058 0 0 0-27.055-7.378m0-7.461v-18.718h33.467c-.299 9.512-1.732 18.435-4.03 26.413a74.509 74.509 0 0 0-29.437-7.695m40.92-18.718c-.32 10.821-2.025 21.035-4.825 30.16a74.5 74.5 0 0 1 11.643 9.097c8.987-10.748 14.669-24.355 15.485-39.257zm22.303-7.45h-22.303c-.32-10.821-2.025-21.035-4.825-30.16a74.4 74.4 0 0 0 11.643-9.097c8.987 10.748 14.669 24.355 15.485 39.257m-29.756 0h-33.467v-18.718a74.5 74.5 0 0 0 29.437-7.695c2.298 7.978 3.731 16.901 4.03 26.413m-40.917-26.179v-36.787c-7.535 1.449-15.168 7.301-21.494 17.845-2.077 3.461-3.948 7.338-5.561 11.564a67.032 67.032 0 0 0 27.055 7.378m7.45 0a67 67 0 0 0 27.055-7.378c-1.613-4.226-3.484-8.103-5.561-11.564-6.326-10.544-13.959-16.396-21.494-17.845zm-7.45 52.347v-18.718h-33.467c.299 9.512 1.732 18.435 4.03 26.413a74.49 74.49 0 0 1 29.437-7.695m-33.467-26.168h33.467v-18.718a74.5 74.5 0 0 1-29.437-7.695c-2.298 7.978-3.731 16.901-4.03 26.413m-7.453 0h-22.303c.816-14.902 6.498-28.509 15.485-39.257a74.4 74.4 0 0 0 11.643 9.097c-2.8 9.125-4.505 19.339-4.825 30.16m-22.303 7.45h22.303c.32 10.821 2.025 21.035 4.825 30.16a74.4 74.4 0 0 0-11.643 9.097c-8.987-10.748-14.669-24.355-15.485-39.257m29.668-44.845c3.387-8.514 7.797-15.801 12.938-21.374a67.1 67.1 0 0 0-22.034 14.069 67 67 0 0 0 9.096 7.305m-9.096 89.545a67.1 67.1 0 0 0 22.034 14.069c-5.141-5.573-9.551-12.86-12.938-21.374a67 67 0 0 0-9.096 7.305m92.752 0a67.1 67.1 0 0 1-22.034 14.069c5.141-5.573 9.551-12.86 12.938-21.374a67 67 0 0 1 9.096 7.305m0-96.85a67 67 0 0 1-9.096 7.305c-3.387-8.514-7.797-15.801-12.938-21.374a67.1 67.1 0 0 1 22.034 14.069" clip-rule="evenodd"/></svg>

<svg width="346" height="472" viewBox="0 0 346 472" fill="none" xmlns="http://www.w3.org/2000/svg">
<path d="M0 0H331C339.284 0 346 6.71573 346 15V457C346 465.284 339.284 472 331 472H0V0Z" fill="#0B123B"/>
<path d="M68.8086 109.309H81.7188C84.2708 109.309 86.3281 110.031 87.8906 111.477C89.4531 112.909 90.2344 114.927 90.2344 117.531C90.2344 119.771 89.5378 121.724 88.1445 123.391C86.7513 125.044 84.6094 125.871 81.7188 125.871H72.6953V138H68.8086V109.309ZM86.3086 117.551C86.3086 115.441 85.5273 114.009 83.9648 113.254C83.1055 112.85 81.9271 112.648 80.4297 112.648H72.6953V122.59H80.4297C82.1745 122.59 83.5872 122.219 84.668 121.477C85.7617 120.734 86.3086 119.426 86.3086 117.551ZM106.875 126.242L102.52 113.566L97.8906 126.242H106.875ZM100.488 109.309H104.883L115.293 138H111.035L108.125 129.406H96.7773L93.6719 138H89.6875L100.488 109.309ZM121.367 128.742C121.458 130.37 121.842 131.691 122.52 132.707C123.809 134.608 126.081 135.559 129.336 135.559C130.794 135.559 132.122 135.35 133.32 134.934C135.638 134.126 136.797 132.681 136.797 130.598C136.797 129.035 136.309 127.922 135.332 127.258C134.342 126.607 132.793 126.04 130.684 125.559L126.797 124.68C124.258 124.107 122.461 123.475 121.406 122.785C119.583 121.587 118.672 119.797 118.672 117.414C118.672 114.836 119.564 112.72 121.348 111.066C123.132 109.413 125.658 108.586 128.926 108.586C131.934 108.586 134.486 109.315 136.582 110.773C138.691 112.219 139.746 114.536 139.746 117.727H136.094C135.898 116.19 135.482 115.012 134.844 114.191C133.659 112.694 131.647 111.945 128.809 111.945C126.517 111.945 124.87 112.427 123.867 113.391C122.865 114.354 122.363 115.474 122.363 116.75C122.363 118.156 122.949 119.185 124.121 119.836C124.889 120.253 126.628 120.773 129.336 121.398L133.359 122.316C135.299 122.759 136.797 123.365 137.852 124.133C139.674 125.474 140.586 127.421 140.586 129.973C140.586 133.15 139.427 135.422 137.109 136.789C134.805 138.156 132.122 138.84 129.062 138.84C125.495 138.84 122.702 137.928 120.684 136.105C118.665 134.296 117.676 131.841 117.715 128.742H121.367ZM148.047 128.742C148.138 130.37 148.522 131.691 149.199 132.707C150.488 134.608 152.76 135.559 156.016 135.559C157.474 135.559 158.802 135.35 160 134.934C162.318 134.126 163.477 132.681 163.477 130.598C163.477 129.035 162.988 127.922 162.012 127.258C161.022 126.607 159.473 126.04 157.363 125.559L153.477 124.68C150.938 124.107 149.141 123.475 148.086 122.785C146.263 121.587 145.352 119.797 145.352 117.414C145.352 114.836 146.243 112.72 148.027 111.066C149.811 109.413 152.337 108.586 155.605 108.586C158.613 108.586 161.165 109.315 163.262 110.773C165.371 112.219 166.426 114.536 166.426 117.727H162.773C162.578 116.19 162.161 115.012 161.523 114.191C160.339 112.694 158.327 111.945 155.488 111.945C153.197 111.945 151.549 112.427 150.547 113.391C149.544 114.354 149.043 115.474 149.043 116.75C149.043 118.156 149.629 119.185 150.801 119.836C151.569 120.253 153.307 120.773 156.016 121.398L160.039 122.316C161.979 122.759 163.477 123.365 164.531 124.133C166.354 125.474 167.266 127.421 167.266 129.973C167.266 133.15 166.107 135.422 163.789 136.789C161.484 138.156 158.802 138.84 155.742 138.84C152.174 138.84 149.382 137.928 147.363 136.105C145.345 134.296 144.355 131.841 144.395 128.742H148.047ZM172.559 109.309H185.469C188.021 109.309 190.078 110.031 191.641 111.477C193.203 112.909 193.984 114.927 193.984 117.531C193.984 119.771 193.288 121.724 191.895 123.391C190.501 125.044 188.359 125.871 185.469 125.871H176.445V138H172.559V109.309ZM190.059 117.551C190.059 115.441 189.277 114.009 187.715 113.254C186.855 112.85 185.677 112.648 184.18 112.648H176.445V122.59H184.18C185.924 122.59 187.337 122.219 188.418 121.477C189.512 120.734 190.059 119.426 190.059 117.551ZM211.25 108.527C216.315 108.527 220.065 110.155 222.5 113.41C224.401 115.949 225.352 119.198 225.352 123.156C225.352 127.44 224.264 131.001 222.09 133.84C219.538 137.173 215.898 138.84 211.172 138.84C206.758 138.84 203.288 137.382 200.762 134.465C198.509 131.652 197.383 128.098 197.383 123.801C197.383 119.921 198.346 116.6 200.273 113.84C202.747 110.298 206.406 108.527 211.25 108.527ZM211.641 135.363C215.065 135.363 217.539 134.139 219.062 131.691C220.599 129.23 221.367 126.405 221.367 123.215C221.367 119.842 220.482 117.128 218.711 115.07C216.953 113.013 214.544 111.984 211.484 111.984C208.516 111.984 206.094 113.007 204.219 115.051C202.344 117.082 201.406 120.083 201.406 124.055C201.406 127.232 202.207 129.914 203.809 132.102C205.423 134.276 208.034 135.363 211.641 135.363ZM243.34 122.453C245.163 122.453 246.602 122.089 247.656 121.359C248.724 120.63 249.258 119.315 249.258 117.414C249.258 115.37 248.516 113.977 247.031 113.234C246.237 112.844 245.176 112.648 243.848 112.648H234.355V122.453H243.34ZM230.469 109.309H243.75C245.938 109.309 247.741 109.628 249.16 110.266C251.855 111.49 253.203 113.749 253.203 117.043C253.203 118.762 252.845 120.168 252.129 121.262C251.426 122.355 250.436 123.234 249.16 123.898C250.28 124.354 251.12 124.953 251.68 125.695C252.253 126.438 252.572 127.642 252.637 129.309L252.773 133.156C252.812 134.25 252.904 135.064 253.047 135.598C253.281 136.509 253.698 137.095 254.297 137.355V138H249.531C249.401 137.753 249.297 137.434 249.219 137.043C249.141 136.652 249.076 135.897 249.023 134.777L248.789 129.992C248.698 128.117 248.001 126.861 246.699 126.223C245.957 125.871 244.792 125.695 243.203 125.695H234.355V138H230.469V109.309ZM279.082 109.309V112.727H269.414V138H265.469V112.727H255.801V109.309H279.082Z" fill="#FDCB61"/>
<path fill-rule="evenodd" clip-rule="evenodd" d="M247 295.5C247 254.355 213.645 221 172.5 221C131.355 221 98 254.355 98 295.5C98 336.645 131.355 370 172.5 370C213.645 370 247 336.645 247 295.5ZM168.775 362.191V325.404C160.865 325.844 153.086 327.683 145.802 330.845C144.418 331.445 143.057 332.092 141.72 332.782C143.333 337.008 145.204 340.885 147.281 344.346C153.607 354.89 161.24 360.742 168.775 362.191ZM176.225 325.404V362.191C183.76 360.742 191.393 354.89 197.719 344.346C199.796 340.885 201.667 337.008 203.28 332.782C201.887 332.062 200.467 331.391 199.022 330.768C191.787 327.653 184.07 325.84 176.225 325.404ZM176.225 317.943V299.225H209.692C209.393 308.737 207.96 317.66 205.662 325.638C204.448 325.034 203.217 324.463 201.969 323.926C193.803 320.409 185.084 318.387 176.225 317.943ZM217.145 299.225C216.825 310.046 215.12 320.26 212.32 329.385C216.487 332.02 220.389 335.067 223.963 338.482C232.95 327.734 238.632 314.127 239.448 299.225H217.145ZM239.448 291.775H217.145C216.825 280.954 215.12 270.74 212.32 261.615C216.488 258.98 220.389 255.933 223.963 252.518C232.95 263.266 238.632 276.873 239.448 291.775ZM209.692 291.775H176.225V273.057C185.158 272.61 193.948 270.557 202.171 266.987C203.35 266.475 204.514 265.933 205.662 265.362C207.96 273.34 209.393 282.263 209.692 291.775ZM168.775 265.596V228.809C161.24 230.258 153.607 236.11 147.281 246.654C145.204 250.115 143.333 253.992 141.72 258.218C143.067 258.914 144.439 259.565 145.834 260.169C153.11 263.323 160.877 265.157 168.775 265.596ZM176.225 265.596C184.136 265.156 191.918 263.317 199.204 260.153C200.586 259.553 201.945 258.907 203.28 258.218C201.667 253.992 199.796 250.115 197.719 246.654C191.393 236.11 183.76 230.258 176.225 228.809V265.596ZM168.775 317.943V299.225H135.308C135.607 308.737 137.04 317.66 139.338 325.638C140.488 325.066 141.655 324.523 142.835 324.011C151.056 320.442 159.844 318.39 168.775 317.943ZM135.308 291.775H168.775V273.057C159.858 272.61 151.082 270.564 142.871 267.005C141.678 266.488 140.5 265.94 139.338 265.362C137.04 273.34 135.607 282.263 135.308 291.775ZM127.855 291.775H105.552C106.368 276.873 112.05 263.266 121.037 252.518C124.611 255.933 128.512 258.98 132.68 261.615C129.88 270.74 128.175 280.954 127.855 291.775ZM105.552 299.225H127.855C128.175 310.046 129.88 320.26 132.68 329.385C128.512 332.02 124.611 335.067 121.037 338.482C112.05 327.734 106.368 314.127 105.552 299.225ZM135.22 254.38C138.607 245.866 143.017 238.579 148.158 233.006C139.89 236.228 132.42 241.044 126.124 247.075C128.942 249.773 131.986 252.217 135.22 254.38ZM126.124 343.925C132.42 349.956 139.89 354.772 148.158 357.994C143.017 352.421 138.607 345.134 135.22 336.62C131.986 338.783 128.942 341.227 126.124 343.925ZM218.876 343.925C212.58 349.956 205.11 354.772 196.842 357.994C201.983 352.421 206.393 345.134 209.78 336.62C213.014 338.783 216.058 341.226 218.876 343.925ZM218.876 247.075C216.058 249.773 213.014 252.217 209.78 254.38C206.393 245.866 201.983 238.579 196.842 233.006C205.11 236.228 212.58 241.044 218.876 247.075Z" fill="#FDCB61"/>
</svg>
